symbolic/24x24/apps/the-stanley-parable.svg

<svg width="24" height="24" version="1.1" xmlns="http://www.w3.org/2000/svg">
 <path d="m8 2.5000001c-0.4499075-1.21e-4 -0.8761165 0.2016921-1.161133 0.549805l-4.4999998 5.4999994c-0.3432689 0.4198055-0.4332521 0.9921885-0.2353516 1.4970705l4.4999999 11.5c0.225079 0.574752 0.7792325 0.952971 1.3964845 0.953125h8c0.617252-1.54e-4 1.171405-0.378373 1.396484-0.953125l4.5-11.5c0.197901-0.504882 0.107918-1.077265-0.235351-1.4970705l-4.5-5.4999994c-0.285016-0.3481129-0.711225-0.549926-1.161133-0.549805l-4 8.4999999z" style="opacity:.2"/>
 <path d="m8 2.0000001c-0.4499075-1.21e-4 -0.8761165 0.2016921-1.161133 0.549805l-4.4999998 5.4999994c-0.3432689 0.4198055-0.4332521 0.9921885-0.2353516 1.4970705l4.4999999 11.5c0.225079 0.574752 0.7792325 0.952971 1.3964845 0.953125h8c0.617252-1.54e-4 1.171405-0.378373 1.396484-0.953125l4.5-11.5c0.197901-0.504882 0.107918-1.077265-0.235351-1.4970705l-4.5-5.4999994c-0.285016-0.3481129-0.711225-0.549926-1.161133-0.549805l-4 8.4999999z" style="fill:#4f4f4f"/>
 <path d="m8 2.0000001c-0.4499075-1.21e-4 -0.8761165 0.2016921-1.161133 0.549805l-4.4999998 5.4999994c-0.2761087 0.337671-0.3850677 0.7737645-0.3154297 1.194336 0.0433189-0.2504765 0.1488228-0.4905815 0.3154297-0.694336l4.4999998-5.4999994c0.2850165-0.3481129 0.7112255-0.549926 1.161133-0.549805l4 8.4999999 4-8.4999999c0.449908-1.21e-4 0.876117 0.2016921 1.161133 0.549805l4.5 5.4999994c0.166607 0.2037545 0.27211 0.4438595 0.315429 0.694336 0.06964-0.4205715-0.03932-0.856665-0.315429-1.194336l-4.5-5.4999994c-0.285016-0.3481129-0.711225-0.549926-1.161133-0.549805l-4 8.4999999z" style="fill:#ffffff;opacity:.1"/>
 <path d="m8 2.5000001-2 3 2 1.4999999-1 1 5 6 5-6-1-1 2-1.4999999-2-3h-4z" style="opacity:.2"/>
 <path d="m8 2.0000001-2 3 2 1.4999999-1 1 5 6 5-6-1-1 2-1.4999999-2-3h-4z" style="fill:#696969"/>
 <path d="m 8,2.0000001 -2,3 L 6.222656,5.1669922 8,2.5000001 h 4 4 L 17.777344,5.1669921 18,5.0000001 l -2,-3 H 12 Z M 7.713867,6.786133 7,7.5 7.227539,7.772461 8,7 Z m 8.572266,0 L 16,7 16.772461,7.772461 17,7.5 Z" style="fill:#ffffff;opacity:.1"/>
 <path d="m8 2.0000001h8l-4 11.5z" style="fill:#e4e4e4"/>
 <path d="m10 4.5 1 2.9999999v10l1 1 1-1v-10l1-2.9999999z" style="opacity:.2"/>
 <path d="m10 4.0000001 1 2.9999999v10l1 1 1-1v-10l1-2.9999999z" style="fill:#d32a2c"/>
 <path d="m11 6.9999999h2l1-2.9999999h-4z" style="opacity:.2"/>
 <path d="M 8,2.5 9,6.4999999 12,4.5 15,6.4999999 16,2.5 Z" style="opacity:.2"/>
 <path d="M 8,2.0000001 9,6 12,4.0000001 15,6 16,2.0000001 Z" style="fill:#ffffff"/>
</svg>

<svg width="24" height="24" xmlns="http://www.w3.org/2000/svg"><path d="M8 2.5a1.5 1.5 0 0 0-1.161.55l-4.5 5.5a1.5 1.5 0 0 0-.235 1.497l4.5 11.5A1.5 1.5 0 0 0 8 22.5h8a1.5 1.5 0 0 0 1.396-.953l4.5-11.5a1.5 1.5 0 0 0-.235-1.497l-4.5-5.5A1.5 1.5 0 0 0 16 2.5L12 11z" style="opacity:.2"/><path d="M8 2a1.5 1.5 0 0 0-1.161.55l-4.5 5.5a1.5 1.5 0 0 0-.235 1.497l4.5 11.5A1.5 1.5 0 0 0 8 22h8a1.5 1.5 0 0 0 1.396-.953l4.5-11.5a1.5 1.5 0 0 0-.235-1.497l-4.5-5.5A1.5 1.5 0 0 0 16 2l-4 8.5z" style="fill:#4f4f4f"/><path d="M8 2a1.5 1.5 0 0 0-1.161.55l-4.5 5.5a1.498 1.498 0 0 0-.316 1.194c.044-.25.15-.49.316-.694l4.5-5.5A1.5 1.5 0 0 1 8 2.5l4 8.5 4-8.5a1.5 1.5 0 0 1 1.161.55l4.5 5.5c.167.204.272.444.316.694.07-.42-.04-.857-.316-1.194l-4.5-5.5A1.5 1.5 0 0 0 16 2l-4 8.5z" style="fill:#fff;opacity:.1"/><path d="m8 2.5-2 3L8 7 7 8l5 6 5-6-1-1 2-1.5-2-3h-4z" style="opacity:.2"/><path d="M8 2 6 5l2 1.5-1 1 5 6 5-6-1-1L18 5l-2-3h-4z" style="fill:#696969"/><path d="M8 2 6 5l.223.167L8 2.5h8l1.777 2.667L18 5l-2-3h-4zm-.286 4.786L7 7.5l.228.272L8 7zm8.572 0L16 7l.772.772L17 7.5z" style="fill:#fff;opacity:.1"/><path d="M8 2h8l-4 11.5z" style="fill:#e4e4e4"/><path d="m10 4.5 1 3v10l1 1 1-1v-10l1-3z" style="opacity:.2"/><path d="m10 4 1 3v10l1 1 1-1V7l1-3z" style="fill:#d32a2c"/><path d="M11 7h2l1-3h-4z" style="opacity:.2"/><path d="m8 2.5 1 4 3-2 3 2 1-4z" style="opacity:.2"/><path d="m8 2 1 4 3-2 3 2 1-4z" style="fill:#fff"/></svg>
